X:1
T:zard midjeh
T:setr 62
L:1/8
Q:1/4=120
M:2/4
K:F
B,2 CD | D2-DF | repet | DC/C/CD | repet|repet| B,C B,D | DC/C/ CD |repet |
CB,B, B,C | B,!b!A/A/ A!=!B, | !b!A,!=!G,G, G,!b!A,!=! | G,2 z2 :|
